X: 35138
T: Rona Morgana
R: reel
M: 4/4
K: Edorian
ef|:"Em"g2 ed "Bm"edBA|"G"ABBA B2 ef|"Em"g2 ed "Bm"edBA|"Em"BEED E2 ef|
"Em"g2 ed "Bm"edBA|"G"ABBA B2 BA|"G"GBGF "D"FAAF|1 "Em"GEED E2 ef:|2 "Em"GEED E2 EF||
|:"G"G3 A "Bm"BABd|"Em"BeeB eABA|"G"GFGA "Bm"BdBA|"G"GB"Bm"FB "Em"E2 EF|
"G"G3 A "Bm"BABd|"Em"BeeB eBef|"G"gb"D"fa "Em"efed|1 "G"gb"D"af "Em"e2 EF:|2 "G"gb"D"af "Em"e4||

